icon/pk/phone-call.svg

<svg viewBox="0 0 48 48" fill="none" xmlns="http://www.w3.org/2000/svg" height="1em" width="1em">
  <path d="M41.7796 20.6066C42.0324 18.9108 41.9495 17.1747 41.5309 15.5054C40.978 13.3002 39.8392 11.2118 38.1147 9.4873C36.3902 7.76281 34.3018 6.62409 32.0967 6.07115C30.4274 5.65257 28.6912 5.56967 26.9954 5.82245" stroke="black" stroke-width="4" stroke-linecap="round" stroke-linejoin="round"/>
  <path d="M34.1896 19.8035C34.4604 17.9869 33.8966 16.0699 32.4982 14.6715C31.0997 13.2731 29.1827 12.7092 27.3662 12.98" stroke="black" stroke-width="4" stroke-linecap="round" stroke-linejoin="round"/>
  <path d="M14.3755 8.79423C15.1021 8.79423 15.7715 9.18825 16.1241 9.82349L18.5706 14.2303C18.8909 14.8073 18.9059 15.5052 18.6108 16.0955L16.254 20.8091C16.254 20.8091 16.937 24.3206 19.7954 27.179C22.6538 30.0374 26.1535 30.7086 26.1535 30.7086L30.8664 28.3522C31.4571 28.0568 32.1555 28.0721 32.7327 28.393L37.152 30.85C37.7866 31.2028 38.1802 31.8719 38.1802 32.598L38.1802 37.6715C38.1802 40.2552 35.7803 42.1213 33.3322 41.2952C28.3043 39.5987 20.4996 36.3685 15.5528 31.4216C10.6059 26.4748 7.3757 18.6701 5.67916 13.6422C4.85314 11.1941 6.71923 8.79423 9.30288 8.79423L14.3755 8.79423Z" fill="#2F88FF" stroke="black" stroke-width="4" stroke-linejoin="round"/>
</svg>

<svg width="48" height="48" fill="none" xmlns="http://www.w3.org/2000/svg"><path d="M41.78 20.607c.252-1.696.17-3.432-.25-5.102a12.939 12.939 0 0 0-3.415-6.018 12.94 12.94 0 0 0-6.018-3.416 13.068 13.068 0 0 0-5.102-.249M34.19 19.803a5.991 5.991 0 0 0-1.692-5.132 5.992 5.992 0 0 0-5.132-1.691" stroke="#000" stroke-width="4" stroke-linecap="round" stroke-linejoin="round"/><path d="M14.376 8.794a2 2 0 0 1 1.748 1.03l2.447 4.406a2 2 0 0 1 .04 1.866l-2.357 4.713s.683 3.512 3.541 6.37c2.859 2.858 6.358 3.53 6.358 3.53l4.713-2.357a2 2 0 0 1 1.867.041l4.419 2.457a2 2 0 0 1 1.028 1.748v5.074c0 2.583-2.4 4.45-4.848 3.623-5.028-1.696-12.832-4.927-17.78-9.873-4.946-4.947-8.176-12.752-9.873-17.78-.826-2.448 1.04-4.848 3.624-4.848h5.072Z" fill="#2F88FF" stroke="#000" stroke-width="4" stroke-linejoin="round"/></svg>
